X: 1
T: the Rogue's Wedding
R: jig
Z: 2008 John Chambers <jc:trillian.mit.edu>
M: 6/8
L: 1/8
K: Ador
|: d \
| "Am"e2A ABA |  "G"G2A Bcd | "Am"e2A     ABA |  "G"G3 "Am"A2d \
| "Am"e2A ABA |  "G"G2A Bcd | "Am"efg  "G"f2d | "Am"e3  A2 :|
|: A \
|  "G"B2B Bcd | "Am"c3  A2B |  "C"c2c  "G"dcd |  "C"e3  g2f \
| "Am"e2A ABA |  "G"G2A Bcd | "Am"e=fe "G"d2B | "Am"A3- A2 :|
